src/assets/icons/weeks,fancy,44.svg

<svg width="48" height="48" viewBox="0 0 48 48" fill="none" xmlns="http://www.w3.org/2000/svg">
<rect opacity="0.2" x="4" y="6" width="40" height="40" rx="4" fill="black"/>
<path d="M6.36577 37.4205H16.1399V41H20.2564V37.4205H22.782V33.9702H20.2564V20.6364H14.8672L6.36577 34.0298V37.4205ZM16.2195 33.9702H10.701V33.8111L16.0604 25.3295H16.2195V33.9702ZM25.3423 37.4205H35.1165V41H39.233V37.4205H41.7585V33.9702H39.233V20.6364H33.8438L25.3423 34.0298V37.4205ZM35.196 33.9702H29.6776V33.8111L35.0369 25.3295H35.196V33.9702Z" fill="black"/>
<g opacity="0.4">
<path d="M10 4C10 2.89543 10.8954 2 12 2C13.1046 2 14 2.89543 14 4V8C14 9.10457 13.1046 10 12 10C10.8954 10 10 9.10457 10 8V4Z" fill="black"/>
<path d="M34 4C34 2.89543 34.8954 2 36 2C37.1046 2 38 2.89543 38 4V8C38 9.10457 37.1046 10 36 10C34.8954 10 34 9.10457 34 8V4Z" fill="black"/>
</g>
<path fill-rule="evenodd" clip-rule="evenodd" d="M10 6.00869C7.52043 6.04456 6.11466 6.22849 5.17157 7.17157C4 8.34315 4 10.2288 4 14V16H44V14C44 10.2288 44 8.34315 42.8284 7.17157C41.8853 6.22849 40.4796 6.04456 38 6.00869V8C38 9.10457 37.1046 10 36 10C34.8954 10 34 9.10457 34 8V6H14V8C14 9.10457 13.1046 10 12 10C10.8954 10 10 9.10457 10 8V6.00869Z" fill="black"/>
</svg>

<svg xmlns="http://www.w3.org/2000/svg" width="48" height="48" fill="none" viewBox="0 0 48 48">
  <rect width="40" height="40" x="4" y="6" fill="#000" opacity=".2" rx="4"/>
  <path fill="#000" d="M6.366 37.42h9.774V41h4.116v-3.58h2.526v-3.45h-2.526V20.636h-5.389L6.366 34.03v3.39zm9.854-3.45H10.7v-.159l5.36-8.482h.159v8.641zm9.122 3.45h9.775V41h4.116v-3.58h2.526v-3.45h-2.526V20.636h-5.39l-8.5 13.394v3.39zm9.854-3.45h-5.518v-.159l5.359-8.482h.159v8.641z"/>
  <g opacity=".4">
    <path fill="#000" d="M10 4a2 2 0 114 0v4a2 2 0 11-4 0V4zM34 4a2 2 0 114 0v4a2 2 0 11-4 0V4z"/>
  </g>
  <path fill="#000" fill-rule="evenodd" d="M10 6.009c-2.48.036-3.885.22-4.828 1.163C4 8.343 4 10.229 4 14v2h40v-2c0-3.771 0-5.657-1.172-6.828-.943-.944-2.348-1.127-4.828-1.163V8a2 2 0 11-4 0V6H14v2a2 2 0 11-4 0V6.009z" clip-rule="evenodd"/>
</svg>
